X:213
T:Malcolm the Fiddler
C:Mike Stangeland 
N:In Memory of Malcolm Smith 
L:1/8
Q:1/4=220
M:4/4
K:A
z8 | "F#m"FC FA cc cc | c2 Bc2B c2 | [A2F2] C=C B,^A, =A,D | FA FA EF F2 | Dd ef =gf af | 
fe =gf fe gf | aa a=g gA ea | =c'e be ae f=g | fa aa ba =gf | ed AF D2 [D2D2] | 
[eA][eA] [eA][eA] [eA]^d =d^d | d^d e3{=g}a eB | A3{=f}e d=c B2 | ae BA E4 | (3=g=fe fe ge (3ABA | 
{^A}B=A BA E=G ED | =CB, ^A,=A, B,C ^CD | B^d B=d [e4B4] | FC FA cc cc | c2 Bc zB c2 | 
F2 C=C B,^A, =A,D | FA FA EF F2 | Dd ef =gf af | fe =gf fe gf | aA E=C [e2A2E2A,2] ea | 
=c'e be ae f=g | fa aa ba =gf | ed AF D2 [A2D2D2] | [eA][eA] [eA][eA] [eA]^d =d^d | 
d^d e3{=g}a eB | A3{=f}e d=c B2 | ae BA E4 | (3=g=fe fe ge (3ABA | {^A}B=A BA E=G ED | 
=CB, ^A,=A, B,C ^CD | B^d B=d [e4B4] | e^d =dB ^AB =GF | DF =GE GE E2 | de f=g af (3fgf | 
ed {d}ee [e4B4E4] | bd' e'b (3e'd'b ee | ab d'a (3d'ba aa | =ga bg (3bag ee | 
f=g ae fg fg | a=g fg eg fg | ae ^d=d =cA ^AB | AA =cA Ee ee | e[eA] [eA][eA] =gf eg | 
=gd Bd ef ga | ba ba b=g eg | fe dB A=G DB, | =G,B, A,G, B,A, DB, | E^D =D3E ^D=D | 
A,D Fd Af dA | dD B,A, =G,A, DF | Ad FA df ea | b=c' b2 bc' b2 | bb b=c' ba g=g | 
f2 f=f e2 dc | =c2 BA [e4B4] | =g3f ge za | a=g fg ef =fe | ^AB e=A _B=B e=f | 
(3=gfe dA =GD B,=G, | A,2 =G,^G, A,2 =G,^G, | A,=C E=G Ae ae | =cA c=G Ac ea | 
^de ad e=c' de | d^d c=d BA c2 | d^d c=d BA BA | cA ce fe cA | ec AF cA Ae | ff ff f4 | 
[A2D2] [A2F2] [e2A2] [e2=c2] | [eA][eA] [eA][eA] [eA]^d =d^d | d^d e3{=g}a eB | 
A3{=f}e d=c B2 | ae BA E4 | (3=g=fe fe ge (3ABA | {^A}B=A BA E=G ED | =CB, ^A,=A, B,C ^CD | 
B^d B=d [e4B4] | FC FA cc cc | c2 Bc zB c2 | F2 C=C B,^A, =A,D | FA FA EF F2 | 
Dd ef =gf af | fe =gf fe gf | aA E=C [e2A2E2A,2] ea | =c'e be ae f=g | fa aa ba =gf | 
ed AF D2 [A2D2D2] | [eA][eA] [eA][eA] [eA]^d =d^d | d^d e3{=g}a eB | A3{=f}e d=c B2 | 
ae BA E4 | =ge =fe ge AA | {^A}B=A BA E=G ED | =CB, ^A,=A, B,C ^CD | B^d B=d e4 | 
z8 | z8 | z8 | z8 | z8 | 
 

